X:17
T:Cinderella                 
O:No 17 Pages 6-7 William Clarkeof Feltwell  MS 1858  
I:abc2nwc
M:2/4
L:1/16
K:G
B4A2G2|F2E2 D4|G4A2B2|(B2c2)(A2B2)|
c4B2A2|(G2F2).E2.D2|D4E2F2|(A4G2) z2:|
|:A4^G2A2|B2A2^G2A2|B4G2B2|A4d4|
A4^G2A2|B2A2c2B2|A2G2F2E2|D2F2 A2c2|
B4A2G2|F2E2 D4|G4A2B2|(B2c2)(A2B2)|
c4B2A2|(G2F2).E2.D2|D4E2F2|(A4G2) z2:|

